X:1
T:Title
%%score { 1 | 2 }
L:1/8
M:6/8
K:Ab
V:1 treble nm="Grand Piano"
V:2 bass 
V:1
 z3 z2[Q:1/4=94] [CE] | [Ec]2 [Ec] [DB]2 [CA] | [CE]2 [DF] [CE]2 [CE] | d2 d c2 B | %4
 [Ec]3- [Ec]2 c | e2 e c2 A |[M:7/8] [FB]2 [Fc] [Fd]3 [Fd] |[M:3/4] c2 A c2 B | [CA]6 | %9
 [Ec][DB] [CA] [CE]2 [CA] | A2 G .G3 | dc d [Ge]2 [GB] | [Bd]2 c .c3 | e=d ec BA | %14
 [FB][FB] [Fc] [Fd]3 | cB c[Ae] cA |[M:5/8] B3 [CA]2 |] %17
V:2
 z3 z2 [A,,A,] | [A,,A,]2 [A,,A,] [A,,A,]2 [A,,A,] | [A,,A,]2 [A,,A,] [A,,A,]2 [A,,A,] | %3
 [E,G,E]2 [E,G,E] [E,A,E]2 [E,G,E] | [A,,A,]3- [A,,A,]2[K:treble] [A,E] | %5
 [A,CA]2 [A,CA] [A,EA]2 [A,CE] |[M:7/8][K:bass] [D,B,]2 [C,=A,] [B,,B,]3 [B,,B,] | %7
[M:3/4] [E,A,E]2 [E,A,C] [E,A,E]2 [E,G,D] | [A,,A,]6 | [A,,A,][A,,A,] [A,,A,] [A,,A,]2 [A,,A,] | %10
 [E,B,D]2 [E,B,D] .[E,B,D]3 | [E,G,E][E,G,E] [E,G,E] [E,B,]2 [E,E] | [A,E]2 [A,EA] .[A,EA]3 | %13
 [A,CA][A,_CA] [A,=CA][A,EA][K:bass] [A,DE][A,CE] | [D,B,][D,B,] [C,=A,] [B,,B,]3 | %15
 [E,A,E][E,G,E] [E,A,E][E,C] [E,A,E][E,A,C] |[M:5/8] [E,G,D]3 [A,,A,]2 |] %17

